X:1
T:107 - Esperando
T:Letra: Salomão Luiz Ginsburg (1867-1927)
T:Música: John Robson Sweney (1837-1899)
M:3/4
L:1/8
Q:1/4=100
K:Ab
V:1
EE | "Ab"F3E EA | "Eb"A2 G2 GA | "Eb7"B3B AB | "Ab"c3z EE | F3E EA | "Eb"A2 G2 BB | "Bb"B3B "Bb7"AF | "Eb"E3z EE | "Eb7"d3B AB | "Ab"c2 A2 cd | e3A GA | "Eb"B3z cB| "Ab"A3E AG | "Db"G2 F2 Bc | "Bbm"d3B "Eb7"AG | "Ab"A3z |]
w: 1.~Bem an-sio-sos a-guar-da-mos Tu-a vin-da,ó bom Je-sus, Quan-doem ma-jes-ta-dee gló-ria Tu vol-ta-res lá dos céus! Re-mo-vi-da,en-tão, ve-re-mos To-da dor, to-daa-fli-ção; E-xul-tan-do,a-plau-di-re-mos Tu-a glo-ri-fi-ca-ção!
w: 2.~Bem an-sio-sos a-guar-da-mos Tu-a vin-da,ó bom Je-sus; Pois, as-sim co-mo  su-bis-te, Vol-ta-rás dos al-tos céus. E nós, tu-as tes-te-mu-nhas,  Com pra-zer ee-xal-ta-ção, E-xul-tan-do,a-plau-di-re-mos Tu-a glo-ri-fi-ca-ção!
w: 3.~Bem an-sio-sos a-guar-da-mos Tu-a vin-da,ó bom Je-sus; Com os nos-sos bem a-ma-dos Go-za-re-mos tu-a luz. Quan-do Tu, Je-sus, vol-ta-res, Des-fa-rás to-dao-pres-são; E-xul-tan-do,a-plau-di-re-mos Tu-a glo-ri-fi-ca-ção!
W: 
W:
W: 1. Bem ansiosos aguardamos
W: Tua vinda, ó bom Jesus,
W: Quando em majestade e glória
W: Tu voltares lá dos céus!
W: Removida, então, veremos
W: Toda dor, toda aflição;
W: Exultando, aplaudiremos
W: Tua glorificação!
W: 
W: 2. Bem ansiosos aguardamos
W: Tua vinda, ó bom Jesus;
W: Pois, assim como  subiste,
W: Voltarás dos altos céus.
W: E nós, tuas testemunhas, 
W: Com prazer e exaltação,
W: Exultando, aplaudiremos
W: Tua glorificação!
W: 
W:
W:
W: 3. Bem ansiosos aguardamos
W: Tua vinda, ó bom Jesus;
W: Com os nossos bem amados
W: Gozaremos tua luz.
W: Quando Tu, Jesus, voltares,
W: Desfarás toda opressão;
W: Exultando, aplaudiremos
W: Tua glorificação!
W:         
W: 





